X:1
T:Donna se questo
T:Donna se questo
T:Giovanni Croce Chiozzotto
T:Source : Canzonette a 3 voci---Libro primo---Venetia---G.Vincenti---1601. Editor : André Vierendeels (12/11/14).
C:Giovanni Croce Chiozzotto
%%score [ 1 2 3 ]
L:1/8
Q:1/4=120
M:4/4
K:F
V:1 treble nm="Canto 1" snm="C 1"
V:2 treble nm="Canto 2" snm="C 2"
V:3 treble-8 nm="Tenor" snm="T"
V:1
 B8 | A4 z2 A2 | c2 d2 c4 | c2 c2 c2 d2 | B2 c2 d2 c2 | A2 G2 A4 |[M:2/4] G4 ::[M:4/4] B2 c2 d4 | %8
w: Don-|na se|que- sto co-|re Al- ber- ga'in|voi co- me vi|giu- r'A- mo-|re,|per- che far-|
w: Las-|so non|v'ac- cor- ge-|te, che lui no-|cen- do, voi stes-|sa no- ce-|te,|ben e fie-|
w: Ma|que- sti|son gli'er- ro-|ri, che scor- ge'A-|mor per ad- dol-|cir i cuo-|ti,|in voi non|
 A2 B2 ^c2 d2- | d2 ^c2 d4 | z4 z2 d2 | c2 B2 A2 G2 | c2 c3 c B2 |1 A4 G4 :|2 A4 G4- || G8 |] %16
w: lo lan- gui- *|* * re,|s'a|me la- mort' e'a|voi da- te mar-|ti- re.|ti- re.|_|
w: ro'il de- si- *|* * o|se|vi fe- ri- te|per fe- rir il|mi- o.|mi- o.|_|
w: e'il cor mi- *|* * o:|on-|de vi- ve- te|voi,- e sol mor|i- o.|i- o.|_|
V:2
 G8 |"^-natural" ^F4 z2 F2 | G2 B2 A4 | A2 A2 A2 B2 | G2 A2 B2 G2 | ^F2 G2 G2 F2 |[M:2/4] G4- :: %7
w: Don-|na se|que- sto co-|re Al- ber- ga'in|voi co- me vi|giu- r'A- mo- *|re,|
w: Las-|so non|v'ac- cor- ge-|te, che lui no-|cen- do, voi stes-|sa no- ce- *|te,|
w: Ma|que- sti|son gli'er- ro-|ri, che scor- ge'A-|mor per ad- dol-|cir i cuo- *|ti,|
[M:4/4] G4 D2 E2 | F4 E2 F2 | E4 D2 A2 | G2 F2 E2 D2 | E2 G2 ^F2 G2- | G2 A4 G2- |1 G2 ^F2 G4 :|2 %14
w: * per- che|far- lo lan-|gui- re, s'a|me la mort'- e'a|voi- da- ta mar-|ti- * *|* * re.|
w: * ben e|fie- ro'il de-|si- o se|vi fe- ri- te|per fe- rir il|_ mi- *|* * o.|
w: * in voi|non e'il cor|mi- o: on-|de vi- ve- te|voi, e sol mor-|_ i- *|* * o.|
 G2 ^F2 G4- || G8 |] %16
w: (ti)- * re.|_|
w: (mi)- * o.|_|
w: (i)- * o.|_|
V:3
 G8 | d4 z2 d2 | c2 B2 f4 | f2 f2 f2 d2 | _e2 c2 B2 c2 | d2 _e2 d4 |[M:2/4] G4 ::[M:4/4] G2 A2 B4 | %8
w: Don-|na se|que- sto co-|re Al- ber- ga'in|voi co- me vi|gui- r'A- mo-|re,|per- che far|
w: Las-|so- non|v'ac- cor- ge-|te, che lui no-|cen- do, voi stes-|sa no- ce-|te,|ben e fie-|
w: Ma|que sti|son gli'er- ro-|ri, che scor- ge'A-|mor per- ad- dol-|cir i cuo-|ti,|in voi non|
 F2 G2 A4- | A4 D4 | z2 d2 c2 B2 | A2 G2 d2 _e2 | c2 c2 d4- |1 d4 G4 :|2 d4 G4- || G8 |] %16
w: lo lan- gui-|* re,|s'a me la|mort'- e'a voi da-|te mar- ti-|* re.|ti- re.|_|
w: ro'il de- si-|* o|se vi fe-|ri- te per fe-|rir il mi-|* o.|mo- o.|_|
w: e'il cor mi-|* o:|on- de vi-|ve- te voi, e|sol mor i-|* o.|i- o.|_|

